icons/assets/Group 709.svg

<svg width="76" height="76" viewBox="0 0 76 76" fill="none" xmlns="http://www.w3.org/2000/svg">
<g clip-path="url(#clip0_662_6501)">
<rect y="58.6777" width="25" height="25" transform="rotate(-45 0 58.6777)" fill="#DFFEAE"/>
<path fill-rule="evenodd" clip-rule="evenodd" d="M54.4167 66.0002H21.1048C20.337 66.0002 19.7168 65.38 19.7168 64.6122V31.3003C19.7168 30.5334 20.337 29.9124 21.1048 29.9124C21.8726 29.9124 22.4928 30.5334 22.4928 31.3003V63.2243H53.0287V31.3003C53.0287 30.5334 53.6489 29.9124 54.4167 29.9124C55.1845 29.9124 55.8047 30.5334 55.8047 31.3003V64.6122C55.8047 65.38 55.1845 66.0002 54.4167 66.0002Z" fill="#0A3B70"/>
<path fill-rule="evenodd" clip-rule="evenodd" d="M64.1313 38.2401H54.4153C53.6476 38.2401 53.0273 37.6199 53.0273 36.8521C53.0273 36.0851 53.6476 35.4641 54.4153 35.4641H64.1313C64.8991 35.4641 65.5193 36.0851 65.5193 36.8521C65.5193 37.6199 64.8991 38.2401 64.1313 38.2401Z" fill="#0A3B70"/>
<path fill-rule="evenodd" clip-rule="evenodd" d="M21.104 38.2401H11.388C10.6202 38.2401 10 37.6199 10 36.8521C10 36.0851 10.6202 35.4641 11.388 35.4641H21.104C21.8717 35.4641 22.492 36.0851 22.492 36.8521C22.492 37.6199 21.8717 38.2401 21.104 38.2401Z" fill="#0A3B70"/>
<path fill-rule="evenodd" clip-rule="evenodd" d="M37.7595 21.492C30.8711 21.492 25.2676 16.511 25.2676 10.388C25.2676 9.62103 25.8878 9 26.6556 9C27.4233 9 28.0436 9.62103 28.0436 10.388C28.0436 14.9803 32.4027 18.716 37.7595 18.716C43.1164 18.716 47.4755 14.9803 47.4755 10.388C47.4755 9.62103 48.0957 9 48.8635 9C49.6313 9 50.2515 9.62103 50.2515 10.388C50.2515 16.511 44.648 21.492 37.7595 21.492Z" fill="#0A3B70"/>
<path fill-rule="evenodd" clip-rule="evenodd" d="M37.7598 15.4791C32.2768 15.4791 27.4823 13.8079 25.5446 11.2223C25.0854 10.6076 25.2099 9.73914 25.823 9.27832C26.4393 8.82068 27.3062 8.946 27.767 9.55672C28.902 11.0724 32.5132 12.7031 37.7598 12.7031C43.0064 12.7031 46.6176 11.0708 47.7526 9.55592C48.211 8.9452 49.0819 8.81592 49.6965 9.27674C50.308 9.73676 50.4342 10.606 49.9749 11.2207C48.0373 13.8079 43.2428 15.4791 37.7598 15.4791Z" fill="#0A3B70"/>
<path fill-rule="evenodd" clip-rule="evenodd" d="M64.1325 38.2404C63.3648 38.2404 62.7445 37.6202 62.7445 36.8524V25.6564C62.7445 18.0034 56.5176 11.7765 48.8646 11.7765C48.0968 11.7765 47.4766 11.1562 47.4766 10.3885C47.4766 9.62152 48.0968 9.00049 48.8646 9.00049C58.0491 9.00049 65.5205 16.4719 65.5205 25.6564V36.8524C65.5205 37.6202 64.9003 38.2404 64.1325 38.2404Z" fill="#0A3B70"/>
<path fill-rule="evenodd" clip-rule="evenodd" d="M11.388 38.2404C10.6202 38.2404 10 37.6202 10 36.8524V25.6564C10 16.4719 17.4714 9.00049 26.656 9.00049C27.4237 9.00049 28.0439 9.62152 28.0439 10.3885C28.0439 11.1562 27.4237 11.7765 26.656 11.7765C19.0029 11.7765 12.776 18.0034 12.776 25.6564V36.8524C12.776 37.6202 12.1558 38.2404 11.388 38.2404Z" fill="#0A3B70"/>
<path fill-rule="evenodd" clip-rule="evenodd" d="M34.1914 28.7903V36.6392H36.3321V43.0613L41.3273 34.4985H38.4728L41.3273 28.7903H34.1914Z" fill="#0A3B70"/>
</g>
<defs>
<clipPath id="clip0_662_6501">
<rect width="76" height="76" fill="white"/>
</clipPath>
</defs>
</svg>

<?xml version="1.0" encoding="utf-8"?>
<!-- Generator: Adobe Illustrator 26.0.1, SVG Export Plug-In . SVG Version: 6.00 Build 0)  -->
<svg version="1.1" id="Layer_1" xmlns="http://www.w3.org/2000/svg" xmlns:xlink="http://www.w3.org/1999/xlink" x="0px" y="0px"
	 viewBox="0 0 76 76" style="enable-background:new 0 0 76 76;" xml:space="preserve">
<style type="text/css">
	.st0{fill:#DFFEAE;}
	.st1{fill-rule:evenodd;clip-rule:evenodd;fill:#0A3B70;}
</style>
<rect x="5.2" y="46.2" transform="matrix(0.7071 -0.7071 0.7071 0.7071 -36.3137 29.6863)" class="st0" width="25" height="25"/>
<path class="st1" d="M54.4,66H21.1c-0.8,0-1.4-0.6-1.4-1.4V31.3c0-0.8,0.6-1.4,1.4-1.4c0.8,0,1.4,0.6,1.4,1.4v31.9H53V31.3
	c0-0.8,0.6-1.4,1.4-1.4c0.8,0,1.4,0.6,1.4,1.4v33.3C55.8,65.4,55.2,66,54.4,66z"/>
<path class="st1" d="M64.1,38.2h-9.7c-0.8,0-1.4-0.6-1.4-1.4c0-0.8,0.6-1.4,1.4-1.4h9.7c0.8,0,1.4,0.6,1.4,1.4
	C65.5,37.6,64.9,38.2,64.1,38.2z"/>
<path class="st1" d="M21.1,38.2h-9.7c-0.8,0-1.4-0.6-1.4-1.4c0-0.8,0.6-1.4,1.4-1.4h9.7c0.8,0,1.4,0.6,1.4,1.4
	C22.5,37.6,21.9,38.2,21.1,38.2z"/>
<path class="st1" d="M37.8,21.5c-6.9,0-12.5-5-12.5-11.1c0-0.8,0.6-1.4,1.4-1.4c0.8,0,1.4,0.6,1.4,1.4c0,4.6,4.4,8.3,9.7,8.3
	c5.4,0,9.7-3.7,9.7-8.3c0-0.8,0.6-1.4,1.4-1.4c0.8,0,1.4,0.6,1.4,1.4C50.3,16.5,44.6,21.5,37.8,21.5z"/>
<path class="st1" d="M37.8,15.5c-5.5,0-10.3-1.7-12.2-4.3c-0.5-0.6-0.3-1.5,0.3-1.9c0.6-0.5,1.5-0.3,1.9,0.3c1.1,1.5,4.7,3.1,10,3.1
	s8.9-1.6,10-3.1c0.5-0.6,1.3-0.7,1.9-0.3c0.6,0.5,0.7,1.3,0.3,1.9C48,13.8,43.2,15.5,37.8,15.5z"/>
<path class="st1" d="M64.1,38.2c-0.8,0-1.4-0.6-1.4-1.4V25.7c0-7.7-6.2-13.9-13.9-13.9c-0.8,0-1.4-0.6-1.4-1.4
	c0-0.8,0.6-1.4,1.4-1.4c9.2,0,16.7,7.5,16.7,16.7v11.2C65.5,37.6,64.9,38.2,64.1,38.2z"/>
<path class="st1" d="M11.4,38.2c-0.8,0-1.4-0.6-1.4-1.4V25.7C10,16.5,17.5,9,26.7,9c0.8,0,1.4,0.6,1.4,1.4c0,0.8-0.6,1.4-1.4,1.4
	c-7.7,0-13.9,6.2-13.9,13.9v11.2C12.8,37.6,12.2,38.2,11.4,38.2z"/>
<path class="st1" d="M34.2,28.8v7.8h2.1v6.4l5-8.6h-2.9l2.9-5.7H34.2z"/>
</svg>
